X:1
T:Chamouni, 87.87 D
T:Chamouni, 87.87 D
T:George Lomas, 1876
T:Public Domain Courtesy of the Cyber Hymnal™
C:George Lomas, 1876
Z:Public Domain
Z:Courtesy of the Cyber Hymnal™
%%score ( 1 2 ) ( 3 4 )
L:1/8
Q:1/4=110
M:3/4
K:Eb
V:1 treble 
V:2 treble 
V:3 bass 
V:4 bass 
V:1
 [B,E][B,F] | [EG]3 [EA] [EG][DF] | [DF]2 E2 [EG][EA] | [EB]3 [Ee] [Ad][Ac] | [AB]4 [GB][G_d] | %5
 [Gc]3 [GB] [FA][=EG] | [FB]2 [FA]2 [DG][=B,F] | [CE]3 F [EG][E=A] | [DB]4 [FB][FB] | %9
 [=EB]3 [GB] [FA][EG] | [FB]2 [FA]2 [DG][DF] | [CE]3 F [EG]E | [EG]2 [DF]2 | [EG][FB] | %14
 [Ee]3 E [DF][=EG] | [=EB]2 [FA]2 [_EG][CF] | E[EF] [EG]3 [DF] | E4 |] %18
V:2
 x2 | x6 | x2 E2 x2 | x6 | x6 | x6 | x6 | x3 F x2 | x6 | x6 | x6 | x3 F E x | x4 | x2 | x3 =E x2 | %15
 x6 | E x5 | E4 |] %18
V:3
 [E,G,][E,A,] | [E,B,]3 [E,C] [E,B,][E,A,] | [E,A,]2 [E,G,]2 [E,B,][F,B,] | %3
 [G,B,]3 [G,B,] [F,D][E,E] | [D,F]4 [E,E][E,B,] | [=E,C]3 [E,C] [C,C][C,C] | %6
 [F,C]2 [F,C]2 [G,=B,]G, | [C,G,]3 [D,B,] [E,G,][C,F,] | [B,,F,]4 [B,,D][B,,D] | %9
 [C,C]3 [C,C] [C,C][C,C] | [F,C]2 [F,C]2 [G,=B,][G,B,] | [C,C]3 [D,B,] [E,B,][C,=A,] | [B,,B,]4 | %13
 [E,B,][D,F,] | [C,G,]3 [G,B,] [A,B,][G,B,] | [F,C]2 [F,,C]2 [G,,B,][A,,A,] | %16
 [C,G,][C,=A,] [B,,B,]3 [B,,_A,] | [E,G,]4 |] %18
V:4
 x2 | x6 | x6 | x6 | x6 | x6 | x5 G, | x6 | x6 | x6 | x6 | x6 | x4 | x2 | x6 | x6 | x6 | x4 |] %18

